assets/compare/premium.svg

<svg width="28" height="29" viewBox="0 0 28 29" fill="none" xmlns="http://www.w3.org/2000/svg">
<path d="M13.9997 26.5667C7.55617 26.5667 2.33301 21.3436 2.33301 14.9001C2.33301 8.45657 7.55617 3.2334 13.9997 3.2334C20.4432 3.2334 25.6663 8.45657 25.6663 14.9001C25.6663 21.3436 20.4432 26.5667 13.9997 26.5667ZM13.9997 24.2334C16.475 24.2334 18.849 23.2501 20.5993 21.4997C22.3497 19.7494 23.333 17.3754 23.333 14.9001C23.333 12.4247 22.3497 10.0507 20.5993 8.3004C18.849 6.55006 16.475 5.56673 13.9997 5.56673C11.5243 5.56673 9.15035 6.55006 7.40001 8.3004C5.64967 10.0507 4.66634 12.4247 4.66634 14.9001C4.66634 17.3754 5.64967 19.7494 7.40001 21.4997C9.15035 23.2501 11.5243 24.2334 13.9997 24.2334V24.2334ZM10.4997 10.2334H17.4997L20.4163 14.3167L13.9997 20.7334L7.58301 14.3167L10.4997 10.2334ZM11.7013 12.5667L10.628 14.0717L13.9997 17.4434L17.3713 14.0717L16.298 12.5667H11.7013V12.5667Z" fill="#5BB5A2"/>
</svg>

<svg xmlns="http://www.w3.org/2000/svg" width="28" height="29" fill="none"><path fill="#5BB5A2" d="M14 26.567c-6.444 0-11.667-5.223-11.667-11.667C2.333 8.457 7.556 3.233 14 3.233c6.443 0 11.666 5.224 11.666 11.667 0 6.444-5.223 11.667-11.666 11.667Zm0-2.334a9.333 9.333 0 1 0 0-18.666 9.333 9.333 0 0 0 0 18.666Zm-3.5-14h7l2.916 4.084L14 20.733l-6.417-6.416 2.917-4.084Zm1.201 2.334-1.073 1.505L14 17.443l3.371-3.371-1.073-1.505h-4.597Z"/></svg>
